X: 1
T: O'ot Be Est Da Vong
O: Shetland
Z: Hiroyuki Yamada
R: reel
M: 4/4
L: 1/8
D: Fiddlers' Bid "Farder Ben Da Welcomer"
D: Solas "Solas"
Z: Contributed 20040503224003 by Hiroyuki Yamada slainte_mha@infoseek.jp
K: Dmaj
A2 AF ABde | f2 fd edBd | A2 AF ABde |1 fafe d2 dB:| 2 fafe d2 df |
g2 ge f2 fd | edef edBA | g2 ge f2 fd | edef a2 af |
g2 ge f2 fd | edef edBd | A2 AF ABde | fafe d2 dB ||
